usr/share/icons/biglinux-icons-material-dark/symbolic/status/network-wireless-connected-50-symbolic.svg

<svg xmlns="http://www.w3.org/2000/svg" viewBox="0 0 22 22">
  <defs id="defs3051">
    <style type="text/css" id="current-color-scheme">
      .ColorScheme-Text {
        color:#232629;
      }
      </style>
  </defs>
    <path
       style="fill:currentColor;fill-opacity:1;stroke:none;opacity:0.5"
       d="M 11 3 C 6.845001 3 3.0940644 4.6715125 0.3828125 7.3828125 L 1.0917969 8.0917969 C 3.6222976 5.5612969 7.1220066 4 11 4 C 14.878001 4 18.377702 5.5612969 20.908203 8.0917969 L 21.617188 7.3828125 C 18.905936 4.6715125 15.155007 3 11 3 z M 11 7 C 7.9530063 7 5.2030906 8.2265438 3.2148438 10.214844 L 3.921875 10.921875 C 5.7293791 9.114375 8.2300034 8 11 8 C 13.770004 8 16.270612 9.114375 18.078125 10.921875 L 18.785156 10.214844 C 16.796909 8.2265438 14.047002 7 11 7 z "
       class="ColorScheme-Text"
       id="rect4152-67" />
    <path
       style="fill:currentColor;fill-opacity:1;stroke:none"
       d="M 11 11 C 9.0610031 11 7.3101723 11.779722 6.0449219 13.044922 L 6.7539062 13.753906 C 7.8384139 12.669406 9.3380002 12 11 12 C 12.661999 12 14.161595 12.669406 15.246094 13.753906 L 15.955078 13.044922 C 14.689828 11.779722 12.939005 11 11 11 z M 11 15 C 9.8920029 15 9 15.892 9 17 C 9 18.108 9.8920029 19 11 19 C 12.108005 19 13 18.108 13 17 C 13 15.892 12.108005 15 11 15 z M 11 16 C 11.554002 16 12 16.446 12 17 C 12 17.554 11.554002 18 11 18 C 10.446006 18 10 17.554 10 17 C 10 16.446 10.446006 16 11 16 z "
       class="ColorScheme-Text"
       id="rect4208-3" />
</svg>

<svg xmlns="http://www.w3.org/2000/svg" viewBox="0 0 22 22">
<defs id="defs3051">
<style id="current-color-scheme" type="text/css">
.ColorScheme-Contrast{color:#232629}
</style>
</defs>
<path id="rect4152-67" d="M11 3A14.95 14.95 0 0 0 .383 7.383l.709.709A13.96 13.96 0 0 1 11 4c3.878 0 7.378 1.561 9.908 4.092l.71-.71A14.95 14.95 0 0 0 11 3m0 4a10.97 10.97 0 0 0-7.785 3.215l.707.707A9.97 9.97 0 0 1 11 8a9.97 9.97 0 0 1 7.078 2.922l.707-.707A10.97 10.97 0 0 0 11 7" class="ColorScheme-Contrast" style="fill:currentColor;fill-opacity:1;stroke:none;opacity:.5"/>
<path id="rect4208-3" d="M11 11a6.98 6.98 0 0 0-4.955 2.045l.709.709A5.98 5.98 0 0 1 11 12a5.98 5.98 0 0 1 4.246 1.754l.71-.71A6.98 6.98 0 0 0 11 11m0 4c-1.108 0-2 .892-2 2s.892 2 2 2 2-.892 2-2-.892-2-2-2m0 1c.554 0 1 .446 1 1s-.446 1-1 1-1-.446-1-1 .446-1 1-1" class="ColorScheme-Contrast" style="fill:currentColor;fill-opacity:1;stroke:none"/>
</svg>
